icon-themes/sifr_svg/cmd/sc_interactivegradient.svg

<svg viewBox="0 0 16 16" xmlns="http://www.w3.org/2000/svg"><path d="m4 2h-2v2h2z" fill="#0369a3"/><g fill="#555753"><path d="m0 0v6h4.5859375l5.4140625 5.414062v4.585938h6v-6h-4.585938l-5.414062-5.4140625v-4.5859375zm2 2h2v2h-2zm10 10h2v2h-2z"/><path d="m14 12h-2v2h2z" opacity=".35"/></g></svg>

<svg xmlns="http://www.w3.org/2000/svg" viewBox="0 0 16 16">
  <path
     d="M 4,2 H 2 v 2 h 2 z"
     style="fill:#0369a3" />
  <path
     style="fill:#555753"
     d="M 0,0 V 6 H 4.5859375 L 10,11.414062 V 16 h 6 V 10 H 11.414062 L 6,4.5859375 V 0 Z M 2,2 H 4 V 4 H 2 Z m 10,10 h 2 v 2 h -2 z"
     />
  <path
     d="m 14,12 h -2 v 2 h 2 z"
     style="opacity:0.35;fill:#555753" />
</svg>
